other/alipay.svg

<?xml version="1.0" encoding="UTF-8" standalone="no"?>
<svg
   xmlns:dc="http://purl.org/dc/elements/1.1/"
   xmlns:cc="http://creativecommons.org/ns#"
   xmlns:rdf="http://www.w3.org/1999/02/22-rdf-syntax-ns#"
   xmlns:svg="http://www.w3.org/2000/svg"
   xmlns="http://www.w3.org/2000/svg"
   xmlns:sodipodi="http://sodipodi.sourceforge.net/DTD/sodipodi-0.dtd"
   xmlns:inkscape="http://www.inkscape.org/namespaces/inkscape"
   viewBox="0 0 48 48"
   version="1.1"
   id="svg4"
   sodipodi:docname="alipay.svg"
   inkscape:version="0.92.4 (fd57863, 2020-04-02)">
  <metadata
     id="metadata10">
    <rdf:RDF>
      <cc:Work
         rdf:about="">
        <dc:format>image/svg+xml</dc:format>
        <dc:type
           rdf:resource="http://purl.org/dc/dcmitype/StillImage" />
      </cc:Work>
    </rdf:RDF>
  </metadata>
  <defs
     id="defs8" />
  <sodipodi:namedview
     pagecolor="#ffffff"
     bordercolor="#666666"
     borderopacity="1"
     objecttolerance="10"
     gridtolerance="10"
     guidetolerance="10"
     inkscape:pageopacity="0"
     inkscape:pageshadow="2"
     inkscape:window-width="1920"
     inkscape:window-height="1015"
     id="namedview6"
     showgrid="false"
     inkscape:snap-bbox="false"
     inkscape:object-paths="true"
     inkscape:snap-intersection-paths="true"
     inkscape:snap-smooth-nodes="true"
     inkscape:snap-midpoints="true"
     inkscape:zoom="11.247659"
     inkscape:cx="20.503678"
     inkscape:cy="27.593994"
     inkscape:window-x="0"
     inkscape:window-y="28"
     inkscape:window-maximized="1"
     inkscape:current-layer="svg4" />
  <path
     style="fill:#ffffff;fill-opacity:1"
     d="M 7 5 C 5.892 5 5 5.892 5 7 L 5 41 C 5 42.108 5.892 43 7 43 L 41 43 C 42.108 43 43 42.108 43 41 L 43 36.78125 C 38.322494 34.789597 32.758075 32.408082 27.765625 30.246094 C 24.418242 34.550007 20.570697 36.794247 15.46875 36.773438 C 11.087494 36.755558 7.4480219 34.361201 7.4511719 30.148438 C 7.4543219 25.935674 11.222886 23.132919 15.003906 23.265625 C 18.677806 23.397427 21.4082 23.956108 26.351562 25.523438 C 27.297868 24.005467 28.023128 22.438661 28.445312 20.324219 L 13.757812 20.324219 L 13.757812 18.863281 L 21.394531 18.863281 L 21.394531 16.183594 L 12.009766 16.183594 L 12.009766 14.671875 L 21.394531 14.671875 L 21.394531 10.664062 C 21.394905 10.388751 21.605031 10.158949 21.878906 10.130859 L 25.695312 10.130859 L 25.695312 14.671875 L 34.898438 14.671875 L 34.898438 16.183594 L 25.695312 16.183594 L 25.695312 18.863281 L 33.234375 18.863281 C 32.481237 21.622539 31.644693 23.92656 30.160156 26.761719 C 36.066352 28.721497 40.53598 30.343053 43 31.214844 L 43 7 C 43 5.892 42.108 5 41 5 L 7 5 z M 14.691406 25.724609 C 11.003413 25.753399 8.8105467 27.608513 8.8105469 29.933594 C 8.8105471 32.513506 11.443526 34.259766 14.691406 34.259766 C 18.935433 34.259766 22.601502 31.289765 24.431641 28.617188 C 22.453883 27.588016 18.981697 25.691109 14.691406 25.724609 z "
     id="rect2-6" />
</svg>

<?xml version="1.0" encoding="UTF-8"?>
<svg version="1.1" viewBox="0 0 48 48" xmlns="http://www.w3.org/2000/svg">
    <path d="m7 5c-1.108 0-2 0.892-2 2v34c0 1.108 0.892 2 2 2h34c1.108 0 2-0.892 2-2v-4.2188c-4.6775-1.9917-10.242-4.3732-15.234-6.5352-3.3474 4.3039-7.1949 6.5482-12.297 6.5273-4.3813-0.01788-8.0207-2.4122-8.0176-6.625 0.00315-4.2128 3.7717-7.0155 7.5527-6.8828 3.6739 0.1318 6.4043 0.69048 11.348 2.2578 0.94631-1.518 1.6716-3.0848 2.0938-5.1992h-14.688v-1.4609h7.6367v-2.6797h-9.3848v-1.5117h9.3848v-4.0078c3.74e-4 -0.27531 0.2105-0.50511 0.48438-0.5332h3.8164v4.541h9.2031v1.5117h-9.2031v2.6797h7.5391c-0.75314 2.7593-1.5897 5.0633-3.0742 7.8984 5.9062 1.9598 10.376 3.5813 12.84 4.4531v-24.215c0-1.108-0.892-2-2-2h-34zm7.6914 20.725c-3.688 0.02879-5.8809 1.8839-5.8809 4.209 2e-7 2.5799 2.633 4.3262 5.8809 4.3262 4.244 0 7.9101-2.97 9.7402-5.6426-1.9778-1.0292-5.4499-2.9261-9.7402-2.8926z" fill="#fff"/>
</svg>
